build/img/logo/logo-mob.svg

<svg width="114" height="19" viewBox="0 0 114 19" fill="none" xmlns="http://www.w3.org/2000/svg">
  <path
    d="M35.48 18H33.064V8.592H30.264C30.2 9.08267 30.1307 9.616 30.056 10.192C29.992 10.768 29.9173 11.3547 29.832 11.952C29.7573 12.5387 29.6773 13.0987 29.592 13.632C29.5067 14.1547 29.4213 14.6187 29.336 15.024C29.1973 15.6853 29.0107 16.2507 28.776 16.72C28.552 17.1893 28.2373 17.5467 27.832 17.792C27.4373 18.0373 26.92 18.16 26.28 18.16C25.864 18.16 25.48 18.1013 25.128 17.984V16C25.2667 16.0427 25.4 16.08 25.528 16.112C25.6667 16.144 25.816 16.16 25.976 16.16C26.2853 16.16 26.52 16 26.68 15.68C26.8507 15.3493 27.0213 14.736 27.192 13.84C27.256 13.4987 27.3467 12.9653 27.464 12.24C27.5813 11.5147 27.7093 10.6667 27.848 9.696C27.9973 8.71467 28.136 7.67467 28.264 6.576H35.48V18ZM38.3619 6.576H40.5379V12.096C40.5379 12.3627 40.5325 12.6613 40.5219 12.992C40.5112 13.3227 40.5005 13.648 40.4899 13.968C40.4792 14.2773 40.4685 14.5493 40.4579 14.784C40.4472 15.008 40.4365 15.1627 40.4259 15.248H40.4739L45.7539 6.576H48.6499V18H46.4899V12.512C46.4899 12.224 46.4952 11.9093 46.5059 11.568C46.5165 11.216 46.5272 10.88 46.5379 10.56C46.5592 10.24 46.5752 9.96267 46.5859 9.728C46.6072 9.48267 46.6232 9.32267 46.6339 9.248H46.5699L41.2739 18H38.3619V6.576ZM58.7498 6.576V8.576H53.9498V18H51.5338V6.576H58.7498ZM66.3695 18L65.5375 15.28H61.3775L60.5455 18H57.9375L61.9695 6.528H64.9295L68.9775 18H66.3695ZM64.9615 13.248L64.1295 10.592C64.0762 10.4107 64.0068 10.1813 63.9215 9.904C63.8362 9.62667 63.7508 9.344 63.6655 9.056C63.5802 8.768 63.5108 8.51733 63.4575 8.304C63.4042 8.51733 63.3295 8.784 63.2335 9.104C63.1482 9.41333 63.0628 9.712 62.9775 10C62.9028 10.2773 62.8442 10.4747 62.8015 10.592L61.9855 13.248H64.9615ZM75.0025 18V6.576H82.2185V8.576H77.4185V10.96H78.3785C79.4558 10.96 80.3358 11.1093 81.0185 11.408C81.7118 11.7067 82.2238 12.1173 82.5545 12.64C82.8852 13.1627 83.0505 13.76 83.0505 14.432C83.0505 15.5627 82.6718 16.4427 81.9145 17.072C81.1678 17.6907 79.9732 18 78.3305 18H75.0025ZM77.4185 16.016H78.2345C78.9705 16.016 79.5465 15.8987 79.9625 15.664C80.3892 15.4293 80.6025 15.0187 80.6025 14.432C80.6025 13.824 80.3732 13.424 79.9145 13.232C79.4558 13.04 78.8318 12.944 78.0425 12.944H77.4185V16.016ZM88.5976 9.088C89.771 9.088 90.667 9.344 91.2856 9.856C91.915 10.3573 92.2296 11.1307 92.2296 12.176V18H90.5656L90.1016 16.816H90.0376C89.6643 17.2853 89.2696 17.6267 88.8536 17.84C88.4376 18.0533 87.867 18.16 87.1416 18.16C86.363 18.16 85.7176 17.936 85.2056 17.488C84.6936 17.0293 84.4376 16.3307 84.4376 15.392C84.4376 14.464 84.763 13.7813 85.4136 13.344C86.0643 12.896 87.0403 12.6507 88.3416 12.608L89.8616 12.56V12.176C89.8616 11.7173 89.739 11.3813 89.4936 11.168C89.259 10.9547 88.9283 10.848 88.5016 10.848C88.075 10.848 87.659 10.912 87.2536 11.04C86.8483 11.1573 86.443 11.3067 86.0376 11.488L85.2536 9.872C85.723 9.62667 86.2403 9.43467 86.8056 9.296C87.3816 9.15733 87.979 9.088 88.5976 9.088ZM89.8616 13.952L88.9336 13.984C88.1656 14.0053 87.6323 14.144 87.3336 14.4C87.035 14.656 86.8856 14.992 86.8856 15.408C86.8856 15.7707 86.9923 16.032 87.2056 16.192C87.419 16.3413 87.6963 16.416 88.0376 16.416C88.5496 16.416 88.9816 16.2667 89.3336 15.968C89.6856 15.6587 89.8616 15.2267 89.8616 14.672V13.952ZM97.0539 9.264V12.624H100.382V9.264H102.766V18H100.382V14.4H97.0539V18H94.6699V9.264H97.0539ZM110.992 9.264H113.616L110.16 13.456L113.92 18H111.216L107.648 13.568V18H105.264V9.264H107.648V13.504L110.992 9.264Z"
    fill="#1F1E25"/>
  <path d="M11.125 1H9.25L1 15.5122H3.4375L4.5625 13.439L11.125 1Z" fill="#2C36F2"/>
  <path d="M2.125 18H17.875L11.125 5.14634L10 7.21951L13.375 13.439L14.5 15.5122H3.4375H1L2.125 18Z" fill="#2C36F2"/>
  <path d="M14.5 15.5122L13.375 13.439H6.625H4.5625L3.4375 15.5122H14.5Z" fill="#2C36F2"/>
  <path d="M17.875 18L19 15.5122L11.125 1L4.5625 13.439H6.625L10 7.21951L11.125 5.14634L17.875 18Z" fill="#2C36F2"/>
  <path d="M10 7.21951L6.625 13.439H13.375L10 7.21951Z" fill="#2C36F2"/>
  <path
    d="M17.875 18H2.125L1 15.5122M17.875 18L19 15.5122L11.125 1M17.875 18L11.125 5.14634L10 7.21951M11.125 1H9.25L1 15.5122M11.125 1L4.5625 13.439M1 15.5122H3.4375M10 7.21951L6.625 13.439M10 7.21951L13.375 13.439M6.625 13.439H13.375M6.625 13.439H4.5625M13.375 13.439L14.5 15.5122H3.4375M4.5625 13.439L3.4375 15.5122"
    stroke="#F6F7FF"/>
</svg>

<svg width="114" height="19" fill="none" xmlns="http://www.w3.org/2000/svg"><path d="M35.48 18h-2.416V8.592h-2.8l-.208 1.6a56.898 56.898 0 01-.224 1.76 53.175 53.175 0 01-.24 1.68c-.085.523-.17.987-.256 1.392-.139.661-.325 1.227-.56 1.696-.224.47-.539.827-.944 1.072-.395.245-.912.368-1.552.368-.416 0-.8-.059-1.152-.176V16c.139.043.272.08.4.112.139.032.288.048.448.048.31 0 .544-.16.704-.48.17-.33.341-.944.512-1.84.064-.341.155-.875.272-1.6.117-.725.245-1.573.384-2.544.15-.981.288-2.021.416-3.12h7.216V18zm2.882-11.424h2.176v5.52c0 .267-.005.565-.016.896l-.032.976c-.01.31-.022.581-.032.816-.01.224-.021.379-.032.464h.048l5.28-8.672h2.896V18h-2.16v-5.488c0-.288.005-.603.016-.944.01-.352.021-.688.032-1.008.021-.32.037-.597.048-.832.021-.245.037-.405.048-.48h-.064L41.274 18h-2.912V6.576zm20.388 0v2h-4.8V18h-2.416V6.576h7.216zM66.37 18l-.833-2.72h-4.16L60.545 18h-2.608L61.97 6.528h2.96L68.979 18H66.37zm-1.409-4.752l-.832-2.656c-.053-.181-.122-.41-.208-.688a84.81 84.81 0 01-.255-.848 18.446 18.446 0 01-.208-.752c-.054.213-.128.48-.224.8-.086.31-.171.608-.257.896a8.192 8.192 0 01-.175.592l-.816 2.656h2.976zM75.002 18V6.576h7.217v2h-4.8v2.384h.96c1.077 0 1.957.15 2.64.448.693.299 1.205.71 1.535 1.232.331.523.496 1.12.496 1.792 0 1.13-.378 2.01-1.135 2.64-.747.619-1.942.928-3.585.928h-3.328zm2.416-1.984h.816c.737 0 1.313-.117 1.729-.352.426-.235.64-.645.64-1.232 0-.608-.23-1.008-.688-1.2-.46-.192-1.083-.288-1.873-.288h-.624v3.072zm11.18-6.928c1.173 0 2.069.256 2.688.768.629.501.944 1.275.944 2.32V18h-1.664l-.464-1.184h-.064c-.374.47-.768.81-1.184 1.024-.416.213-.987.32-1.712.32-.779 0-1.424-.224-1.936-.672-.512-.459-.768-1.157-.768-2.096 0-.928.325-1.61.976-2.048.65-.448 1.626-.693 2.928-.736l1.52-.048v-.384c0-.459-.123-.795-.368-1.008-.235-.213-.566-.32-.992-.32a4.12 4.12 0 00-1.248.192 9.278 9.278 0 00-1.216.448l-.784-1.616a6.87 6.87 0 011.552-.576 7.63 7.63 0 011.792-.208zm1.264 4.864l-.928.032c-.768.021-1.302.16-1.6.416-.299.256-.448.592-.448 1.008 0 .363.106.624.32.784.213.15.49.224.832.224.512 0 .944-.15 1.296-.448.352-.31.528-.741.528-1.296v-.72zm7.192-4.688v3.36h3.328v-3.36h2.384V18h-2.384v-3.6h-3.328V18H94.67V9.264h2.384zm13.938 0h2.624l-3.456 4.192L113.92 18h-2.704l-3.568-4.432V18h-2.384V9.264h2.384v4.24l3.344-4.24z" fill="#1F1E25"/><path d="M11.125 1H9.25L1 15.512h2.438l1.124-2.073L11.125 1z" fill="#2C36F2"/><path d="M2.125 18h15.75l-6.75-12.854L10 7.22l3.375 6.219 1.125 2.073H1L2.125 18z" fill="#2C36F2"/><path d="M14.5 15.512l-1.125-2.073H4.562l-1.125 2.073H14.5z" fill="#2C36F2"/><path d="M17.875 18L19 15.512 11.125 1 4.562 13.439h2.063L10 7.219l1.125-2.073L17.875 18z" fill="#2C36F2"/><path d="M10 7.22l-3.375 6.219h6.75L10 7.219z" fill="#2C36F2"/><path d="M17.875 18H2.125L1 15.512M17.875 18L19 15.512 11.125 1m6.75 17l-6.75-12.854L10 7.22M11.125 1H9.25L1 15.512M11.125 1L4.562 13.439M1 15.512h2.438M10 7.22l-3.375 6.219M10 7.219l3.375 6.22m-6.75 0h6.75m-6.75 0H4.562m8.813 0l1.125 2.073H3.437m1.126-2.073l-1.125 2.073" stroke="#F6F7FF"/></svg>
